assets/img/select-chevron-black.svg

<svg width="21" height="21" viewBox="0 0 21 21" fill="none" xmlns="http://www.w3.org/2000/svg">
<g id="Frame 14">
<path id="&#239;&#132;&#135;" d="M14.9337 8.51079C14.9337 8.43936 14.898 8.359 14.8445 8.30543L14.398 7.859C14.3445 7.80543 14.2641 7.76971 14.1927 7.76971C14.1212 7.76971 14.0409 7.80543 13.9873 7.859L10.4784 11.3679L6.96946 7.859C6.91589 7.80543 6.83553 7.76971 6.7641 7.76971C6.68375 7.76971 6.61232 7.80543 6.55875 7.859L6.11232 8.30543C6.05875 8.359 6.02303 8.43936 6.02303 8.51079C6.02303 8.58221 6.05875 8.66257 6.11232 8.71614L10.273 12.8769C10.3266 12.9304 10.407 12.9661 10.4784 12.9661C10.5498 12.9661 10.6302 12.9304 10.6837 12.8769L14.8445 8.71614C14.898 8.66257 14.9337 8.58221 14.9337 8.51079Z" fill="black"/>
</g>
</svg>

<svg width="21" height="21" fill="none" xmlns="http://www.w3.org/2000/svg"><path d="M14.934 8.51a.308.308 0 00-.09-.205l-.446-.446a.307.307 0 00-.205-.09.308.308 0 00-.206.09l-3.509 3.509L6.97 7.859a.308.308 0 00-.205-.09.29.29 0 00-.205.09l-.447.446a.308.308 0 00-.089.206c0 .071.036.152.09.205l4.16 4.16c.054.054.134.09.205.09a.308.308 0 00.206-.09l4.16-4.16a.308.308 0 00.09-.205z" fill="#000"/></svg>
